X: 15224
T: Gipsy, The
R: hornpipe
M: 4/4
K: Amajor
ed|cdBc ABGA|FGAF E2 FG|A2 EA c2 Bc|edcd B2 ed|
cdBc ABGA|FGAF E2 FG|Afed cBAG|A2 AA A2 (3BAG||
F2 ff f2 (3AGF|E2 ee e2(3GFE|D2 dd d2 Bc|dcBA GFED|
C2 ff f2 (3agf|e2 ee e2 fg|agfe gfe^d|e^def e=dcB||

